X:172
T:Young Roger
M:9/4
L:1/8
B:Thompson's Compleat Collection of 200 Favourite Country Dances, vol. 2 (London, 1765)
Z:Transcribed and edited by Flynn Titford-Mock, 2007
Z:abc's:AK/Fiddler's Companion
K:D
F3G A2 A2F2A2 B6|e4 E2 E4F2 G2F2E2|F3GA2 A2F2A2 B6|A2F2D2 D2E2F2 "tr"E4 D2:|
|:d2e2f2 d2e2f2 e6|g2B2B2 B2c2d2 c2B2A2|d2A2F2 FG A2F2 B6|A2F2D2 D2E2F2 E4 D2:||
